public/assets/images/award/06.svg

<svg width="110" height="24" viewBox="0 0 110 24" fill="none" xmlns="http://www.w3.org/2000/svg">
<path fill-rule="evenodd" clip-rule="evenodd" d="M35.4473 11.1423H109.278V23.0312H35.4473V11.1423ZM101.158 7.40055C101.158 7.8715 101.158 8.20428 101.047 8.37008C100.964 8.45357 100.825 8.45357 100.494 8.53647L99.9391 8.56411V9.00742C100.438 9.00742 100.965 8.92393 101.408 8.92393C101.962 8.92393 102.378 9.00742 102.933 9.00742V8.56411L102.379 8.53647C102.073 8.45298 101.963 8.45298 101.879 8.37008C101.741 8.20369 101.741 7.8715 101.741 7.40055V1.63568L107.7 9.00801L108.836 9.20203C108.836 9.0915 108.753 8.86984 108.753 8.70345V1.80266C108.753 1.27586 108.836 0.943661 108.864 0.860172C108.948 0.666148 109.085 0.666151 109.418 0.666151L110 0.583246V0.251057C109.418 0.251057 108.947 0.278689 108.447 0.278689C108.032 0.278689 107.478 0.251057 106.979 0.251057V0.583246L107.561 0.666151C107.865 0.666151 108.032 0.666148 108.087 0.860172C108.171 0.943661 108.198 1.27586 108.198 1.80266V7.62221H108.17L102.156 0.250469C101.962 0.250469 101.713 0.278101 101.462 0.278101C101.047 0.278101 100.494 0.250469 99.9385 0.250469V0.582659L100.493 0.665559C100.825 0.665559 100.964 0.66556 101.046 0.859584C101.157 0.943073 101.157 1.27527 101.157 1.80207L101.158 7.40055ZM93.5639 7.40055C93.5639 7.8715 93.564 8.20428 93.4534 8.37008C93.397 8.45357 93.287 8.45357 92.9813 8.53647L92.4827 8.56411V9.00742C92.9813 9.00742 93.3693 8.92393 93.8685 8.92393C94.6722 8.92393 95.6418 9.00742 96.6395 9.00742C97.5262 9.00742 98.4687 8.95215 99.0784 8.92393C99.0784 8.23133 99.1613 7.45523 99.2724 6.8173H98.8014C98.7174 7.56576 98.551 8.14784 98.3857 8.23074C98.1917 8.36891 96.8882 8.39713 95.8905 8.39713C95.5036 8.39713 95.1156 8.39713 94.7822 8.31423V4.79416C95.1702 4.76652 95.6688 4.76653 96.2509 4.76653C97.0546 4.76653 97.4427 4.79416 97.6097 4.87706C97.6926 4.93233 97.6925 5.04345 97.7202 5.18221L97.7766 5.93008H98.1359C98.1359 5.56967 98.1082 5.01581 98.1082 4.54428C98.1082 4.1286 98.1359 3.63001 98.1359 3.13084H97.7766L97.7202 3.76818C97.6925 3.93457 97.6926 4.04511 97.6097 4.04511C97.4433 4.18386 97.0552 4.26676 96.2509 4.26676C95.6688 4.26676 95.1979 4.26676 94.7822 4.18386V0.857821C95.115 0.747286 95.5036 0.747284 95.8905 0.747284C96.6389 0.747284 97.692 0.747287 98.3023 0.996578C98.441 1.07948 98.441 1.1906 98.441 1.3564V2.1325H98.8567C98.8567 1.52279 98.9396 0.830189 99.0784 0.27575C98.5516 0.248117 98.0253 0.248114 97.4433 0.248114C96.723 0.248114 95.5865 0.27575 94.5059 0.27575C93.7844 0.27575 93.0648 0.248114 92.3157 0.248114V0.580308L92.9807 0.663209C93.2864 0.663209 93.3964 0.66321 93.4528 0.857234C93.5634 0.940723 93.5634 1.27291 93.5634 1.79972L93.5639 7.40055ZM91.0699 2.30124C91.0699 1.74681 91.1539 1.19237 91.2639 0.527395C90.7653 0.361592 90.0168 0.000587629 89.0191 0.000587629C87.4951 0.000587629 85.7771 0.91544 85.7771 2.82746C85.7771 4.18563 86.5244 4.7677 88.5481 5.01699C89.7952 5.15516 90.7653 5.48794 90.7653 6.67972C90.7653 7.9544 89.6012 8.56411 88.5205 8.56411C87.4951 8.56411 86.4974 8.12079 86.4421 7.56635L86.331 6.76262H85.9153C85.9429 7.37233 85.9429 8.06494 85.86 8.70286C86.2481 8.86925 87.1347 9.20145 87.9937 9.20145C89.8781 9.20145 91.7636 8.12079 91.7636 5.93126C91.7636 4.54545 90.6818 4.12977 88.9362 3.93575C87.3287 3.71409 86.8301 3.21551 86.8301 2.38414C86.8301 1.10947 87.7991 0.526802 88.6869 0.526802C89.1855 0.526802 89.7123 0.582659 90.0445 0.859584C90.5713 1.10888 90.5713 1.24763 90.5989 1.63568L90.6818 2.30066L91.0699 2.30124ZM76.4087 7.40055C76.4087 7.8715 76.4087 8.20428 76.3258 8.37008C76.187 8.45357 76.0477 8.45357 75.7714 8.53647L75.2169 8.56411V9.00742C75.689 9.00742 76.187 8.92393 76.658 8.92393C77.1848 8.92393 77.6557 9.00742 78.2108 9.00742V8.56411L77.6563 8.53647C77.3518 8.45298 77.1854 8.45298 77.1031 8.37008C76.9919 8.20369 76.9919 7.8715 76.9919 7.40055V1.63568L82.9232 9.00801L84.1138 9.20203C84.1138 9.0915 84.0309 8.86984 84.0309 8.70345V1.80266C84.0309 1.27586 84.1138 0.943661 84.142 0.860172C84.2249 0.666148 84.3913 0.666151 84.6406 0.666151L85.2503 0.583246V0.251057C84.6406 0.251057 84.2249 0.278689 83.7263 0.278689C83.283 0.278689 82.7562 0.251057 82.2576 0.251057V0.583246L82.8109 0.666151C83.1437 0.666151 83.283 0.666148 83.3653 0.860172C83.4482 0.943661 83.4759 1.27586 83.4759 1.80266V7.62221H83.4482L77.4341 0.250469C77.1848 0.250469 76.9908 0.278101 76.7415 0.278101C76.3258 0.278101 75.7714 0.250469 75.2163 0.250469V0.582659L75.7708 0.665559C76.0477 0.665559 76.1865 0.66556 76.3252 0.859584C76.4081 0.943073 76.4081 1.27527 76.4081 1.80207V7.40055H76.4087ZM68.8435 7.40055C68.8435 7.8715 68.8435 8.20428 68.7324 8.37008C68.6495 8.45357 68.5107 8.45357 68.178 8.53647L67.7623 8.56411V9.00742C68.178 9.00742 68.6501 8.92393 69.0934 8.92393C69.8971 8.92393 70.8667 9.00742 71.8644 9.00742C72.8075 9.00742 73.7488 8.95215 74.3032 8.92393C74.3032 8.23133 74.4144 7.45523 74.5249 6.8173H74.1368C73.9993 7.56576 73.8323 8.14784 73.6659 8.23074C73.4166 8.36891 72.1131 8.39713 71.1165 8.39713C70.7285 8.39713 70.3951 8.39713 70.0635 8.31423V4.79416C70.4504 4.76652 70.8949 4.76653 71.5034 4.76653C72.2795 4.76653 72.6952 4.79416 72.8345 4.87706C72.9174 4.93233 72.9174 5.04345 72.9733 5.18221L73.0009 5.93008H73.389C73.389 5.56967 73.3325 5.01581 73.3325 4.54428C73.3325 4.1286 73.389 3.63001 73.389 3.13084H73.0009L72.9733 3.76818C72.9168 3.93457 72.9168 4.04511 72.8345 4.04511C72.6958 4.18386 72.2801 4.26676 71.5034 4.26676C70.8949 4.26676 70.478 4.26676 70.0635 4.18386V0.857821C70.3951 0.747286 70.7285 0.747284 71.1165 0.747284C71.9191 0.747284 72.9168 0.747287 73.583 0.996578C73.6659 1.07948 73.6659 1.1906 73.6659 1.3564V2.1325H74.1368C74.1368 1.52279 74.1645 0.830189 74.3032 0.27575C73.8323 0.248117 73.3055 0.248114 72.6958 0.248114C72.0032 0.248114 70.8667 0.27575 69.786 0.27575C69.0099 0.27575 68.3173 0.248114 67.5688 0.248114V0.580308L68.1785 0.663209C68.5113 0.663209 68.6507 0.66321 68.733 0.857234C68.8441 0.940723 68.8441 1.27291 68.8441 1.79972L68.8435 7.40055ZM65.24 7.65043C65.24 7.98262 65.24 8.06611 65.1571 8.20428C65.1294 8.3983 64.4086 8.67523 63.4103 8.67523C60.8609 8.67523 59.3369 6.81848 59.3369 4.35143C59.3369 2.13427 60.6392 0.526802 62.9946 0.526802C63.8259 0.526802 64.3804 0.582662 64.7961 0.748464C65.3229 0.997756 65.7938 1.19178 65.7938 1.80207V2.38414H66.2095C66.2095 1.80207 66.2924 1.10946 66.4312 0.526802C65.8767 0.361 64.906 0 63.355 0C60.3059 0 58.0058 1.80149 58.0058 4.54487C58.0058 7.70452 60.3059 9.20086 63.1057 9.20086C63.9371 9.20086 65.2946 8.86866 66.3759 8.53588V6.42925C66.3759 6.01357 66.3759 6.01357 66.5411 5.93008L66.8739 5.81955L66.8462 5.57025H63.7695V5.90304L64.8225 5.93067C65.1553 6.01416 65.2382 6.15233 65.2382 6.42984V7.65043H65.24ZM52.6025 9.20203C55.3735 9.20203 57.4243 6.98487 57.4243 4.29675C57.4243 1.52515 55.5676 0.000587629 52.8518 0.000587629C49.9138 0.000587629 48.1123 1.9961 48.1123 4.54546C48.1129 7.40055 50.0526 9.20203 52.6025 9.20203ZM52.6302 0.527395C54.9861 0.527395 56.122 2.16249 56.122 4.6848C56.122 6.98546 55.0966 8.67581 52.9624 8.67581C50.4959 8.67581 49.4981 6.32048 49.4981 4.13095C49.4981 2.05195 50.4683 0.527395 52.6302 0.527395ZM46.3391 1.80266C46.3391 1.27586 46.3943 0.943661 46.4772 0.860172C46.5049 0.666148 46.6989 0.666151 46.9764 0.666151L47.5303 0.583246V0.251057C47.1981 0.251057 46.7824 0.278689 46.3391 0.278689C45.9787 0.278689 45.563 0.251057 45.1473 0.251057L41.8771 7.23475L38.5234 0.251057C38.1354 0.251057 37.7473 0.278689 37.3317 0.278689C36.9712 0.278689 36.5556 0.251057 36.1399 0.251057V0.583246L36.7219 0.666151C36.9989 0.666151 37.1376 0.666148 37.2487 0.860172C37.3316 0.943661 37.3317 1.27586 37.3317 1.80266V7.40055C37.3317 7.8715 37.3316 8.20428 37.2487 8.37008C37.1382 8.45357 36.9989 8.45357 36.7219 8.53647L36.1399 8.56411V9.00742C36.6667 9.00742 37.1376 8.92393 37.6362 8.92393C38.1072 8.92393 38.5228 9.00742 39.1325 9.00742V8.56411L38.5228 8.53647C38.2735 8.45298 38.1072 8.45298 38.0237 8.37008C37.9684 8.20369 37.9408 7.8715 37.9408 7.40055V1.74681H37.9684L41.4602 9.09091H41.7095C41.9588 8.53706 42.07 7.98262 42.3745 7.45582L44.5917 2.71634C44.7581 2.38415 44.9797 2.05136 45.1455 1.74622V7.39996C45.1455 7.87091 45.1455 8.20369 45.062 8.36949C44.9791 8.45298 44.8404 8.45298 44.5082 8.53588L44.0925 8.56352V9.00683C44.5358 8.95157 45.1455 8.92335 45.7552 8.92335C46.3373 8.92335 46.947 8.95098 47.5567 9.00683V8.56352L46.9746 8.53588C46.6977 8.53588 46.5037 8.4524 46.4755 8.36949C46.392 8.2031 46.3373 7.87091 46.3373 7.39996V1.80266H46.3391Z" fill="#0C1018"/>
<path fill-rule="evenodd" clip-rule="evenodd" d="M95.9737 20.1768L97.1378 20.0939V16.8237L100.574 20.2608V14.2743L99.4379 14.3572V17.6274L95.9731 14.1914V20.1768H95.9737ZM88.5467 19.4018V16.7137H86.0802L85.7474 17.7667H87.4102V18.7921C87.0509 19.0967 86.6076 19.2354 86.1078 19.2354C85.1101 19.2354 84.3064 18.3764 84.3064 17.2123C84.3064 16.0764 85.1101 15.245 86.1078 15.245C86.7452 15.245 87.2449 15.4943 87.7982 15.9653L88.4079 15.1063C87.7982 14.4966 87.0503 14.2473 86.1078 14.2473C85.3317 14.2473 84.5562 14.5242 84.0294 15.1063C83.475 15.6607 83.1428 16.3809 83.1428 17.2123C83.1428 18.1001 83.4744 18.7651 84.0294 19.4024C84.5851 19.9467 85.33 20.2546 86.1078 20.2614C86.9939 20.2608 87.7976 19.9839 88.5467 19.4018ZM74.7169 20.1768L75.8528 20.0939V14.2743L74.7169 14.3572V20.1768ZM63.5758 19.3178C64.0467 19.9839 64.6564 20.2608 65.4602 20.2608C66.5973 20.2608 67.3445 19.4847 67.3445 18.4593C67.3445 17.628 66.9577 17.0747 66.1251 16.7414C65.3778 16.4644 64.8781 16.4644 64.8781 15.9653C64.8781 15.5772 65.1285 15.3279 65.5719 15.3279C65.9323 15.3279 66.2092 15.4943 66.5138 15.8265L67.2622 15.0239C66.8465 14.4971 66.2921 14.2479 65.5442 14.2479C64.4912 14.2479 63.6875 14.9951 63.6875 15.9935C63.6875 16.8248 64.1584 17.297 65.1285 17.6286C65.7659 17.8502 66.1816 17.9613 66.1816 18.4599C66.1816 18.8756 65.8758 19.1537 65.4055 19.1537C65.0451 19.1537 64.7405 18.9309 64.4077 18.4599L63.5758 19.3178ZM53.2102 20.0944H56.3969L56.8126 19.0138H54.402V17.628H56.0653V16.5473H54.402V15.4114H56.5356L56.2863 14.3572H53.2096L53.2102 20.0944ZM42.6241 19.0138V15.439H42.8181C44.0928 15.439 44.8413 16.1593 44.8413 17.2123C44.8413 18.293 44.0934 19.0138 42.8181 19.0138H42.6241ZM41.46 14.3572V20.0944H42.707C44.7578 20.0944 45.9772 18.9585 45.9772 17.2123C45.9772 15.5219 44.8136 14.3578 42.707 14.3578L41.46 14.3572Z" fill="white"/>
<path fill-rule="evenodd" clip-rule="evenodd" d="M11.3074 0.113574L0.0275879 0.0859375L0.0552216 7.12548C2.63221 4.68666 7.28879 1.7763 11.3074 0.113574Z" fill="#0C1018"/>
<path fill-rule="evenodd" clip-rule="evenodd" d="M15.5201 0.0826123C15.8252 0.498294 16.2679 1.08037 16.5737 1.77297C16.6013 2.16102 16.5737 2.7431 16.4073 3.21463C14.3565 7.2327 11.89 11.0573 8.86914 14.5768C13.2482 11.1132 14.8557 10.226 18.264 8.39684L20.0379 9.17293C19.0125 9.53335 15.493 13.4132 14.7722 14.7156C15.493 14.0229 22.8371 9.67152 23.281 9.81027C23.6691 9.86613 27.3273 11.4454 26.4124 11.2796C25.5258 11.1408 20.9251 14.8825 19.7057 16.0743C18.4034 17.2937 16.1027 21.0355 17.405 21.5058C20.8416 22.7529 33.1468 14.3551 33.0087 13.2745L33.0363 0.0273438L15.5201 0.0826123Z" fill="#0C1018"/>
<path fill-rule="evenodd" clip-rule="evenodd" d="M16.6567 22.9226L0 22.9502V10.9225C3.76936 7.15312 8.12079 3.82767 13.497 1.22245C14.7164 0.779138 15.1045 1.02843 14.5777 1.91565C11.5992 6.58141 8.42774 11.1212 5.07167 15.5232L5.9583 18.7934C5.51499 18.5994 14.4113 11.5046 14.8264 11.6992C14.7158 11.588 10.7525 16.6603 10.9465 17.103C11.1405 17.5187 11.1405 18.5994 11.4457 18.5441C11.3622 18.1284 21.5614 11.7538 22.2822 11.5875C21.3397 11.7538 13.8016 18.1837 15.0486 20.7054C16.0193 22.3958 15.6589 21.7861 16.6567 22.9226Z" fill="#33348E"/>
<path fill-rule="evenodd" clip-rule="evenodd" d="M22.4221 22.8657C26.773 21.0089 32.9535 17.7382 32.9535 17.7658L33.0094 22.8657H22.4221Z" fill="#0C1018"/>
</svg>

<svg xmlns="http://www.w3.org/2000/svg" width="110" height="24" fill="none" viewBox="0 0 110 24"><path fill="#0c1018" fill-rule="evenodd" d="M35.447 11.142h73.831v11.89h-73.83zm65.711-3.741c0 .47 0 .803-.111.97-.083.083-.222.083-.553.165l-.555.028v.443c.499 0 1.026-.083 1.469-.083.554 0 .97.083 1.525.083v-.443l-.554-.028c-.306-.083-.416-.083-.5-.166-.138-.166-.138-.498-.138-.97V1.637l5.959 7.372 1.136.194c0-.11-.083-.332-.083-.499v-6.9c0-.527.083-.86.111-.943.084-.194.221-.194.554-.194L110 .583V.251c-.582 0-1.053.028-1.553.028-.415 0-.969-.028-1.468-.028v.332l.582.083c.304 0 .471 0 .526.194.084.084.111.416.111.943v5.82h-.028L102.156.25c-.194 0-.443.028-.694.028-.415 0-.968-.028-1.523-.028v.333l.554.083c.332 0 .471 0 .553.194.111.083.111.415.111.942zm-7.594 0c0 .47 0 .803-.11.97-.057.083-.167.083-.473.165l-.498.028v.443c.498 0 .886-.083 1.385-.083.804 0 1.774.083 2.772.083.886 0 1.829-.055 2.438-.083 0-.693.083-1.469.194-2.107h-.47c-.085.749-.251 1.33-.416 1.414-.194.138-1.498.166-2.495.166-.387 0-.775 0-1.109-.083v-3.52c.388-.027.887-.027 1.469-.027.804 0 1.192.027 1.359.11.083.055.082.166.11.305l.057.748h.359c0-.36-.028-.914-.028-1.386 0-.415.028-.914.028-1.413h-.36l-.056.637c-.028.167-.027.277-.11.277-.167.139-.555.222-1.36.222-.581 0-1.052 0-1.468-.083V.858c.333-.11.722-.11 1.109-.11.748 0 1.801 0 2.411.249.139.082.139.194.139.36v.775h.416c0-.61.083-1.302.221-1.856a31 31 0 0 0-1.635-.028c-.72 0-1.856.028-2.937.028-.722 0-1.441-.028-2.19-.028V.58l.665.083c.305 0 .415 0 .472.194.11.084.11.416.11.943zM91.07 2.3c0-.554.084-1.109.194-1.774C90.765.361 90.017 0 89.019 0c-1.524 0-3.242.914-3.242 2.826 0 1.359.747 1.94 2.771 2.19 1.247.138 2.217.47 2.217 1.663 0 1.274-1.164 1.884-2.245 1.884-1.025 0-2.023-.443-2.078-.998l-.111-.803h-.416c.028.61.028 1.302-.055 1.94.388.166 1.275.498 2.134.498 1.884 0 3.77-1.08 3.77-3.27 0-1.386-1.082-1.801-2.828-1.995-1.607-.222-2.106-.72-2.106-1.552 0-1.275.97-1.857 1.857-1.857.499 0 1.025.056 1.358.333.526.249.526.388.554.776l.083.665zM76.409 7.4c0 .47 0 .803-.083.97-.139.083-.278.083-.555.165l-.554.028v.443c.472 0 .97-.083 1.441-.083.527 0 .998.083 1.553.083v-.443l-.555-.028c-.304-.083-.47-.083-.553-.166-.111-.166-.111-.498-.111-.97V1.637l5.931 7.372 1.19.194c0-.11-.082-.332-.082-.499v-6.9c0-.527.083-.86.111-.943.083-.194.25-.194.499-.194l.61-.083V.251c-.61 0-1.026.028-1.525.028-.443 0-.97-.028-1.468-.028v.332l.553.083c.333 0 .472 0 .554.194.083.084.11.416.11.943v5.82h-.027L77.434.25c-.25 0-.443.028-.692.028-.416 0-.97-.028-1.526-.028v.333l.555.083c.277 0 .415 0 .554.194.083.083.083.415.083.942zm-7.565 0c0 .47 0 .803-.112.97-.082.083-.221.083-.554.165l-.416.028v.443c.416 0 .888-.083 1.331-.083.804 0 1.774.083 2.771.083.944 0 1.885-.055 2.44-.083 0-.693.11-1.469.22-2.107h-.387c-.138.749-.305 1.33-.471 1.414-.25.138-1.553.166-2.55.166-.388 0-.72 0-1.052-.083v-3.52c.386-.027.83-.027 1.44-.027.775 0 1.191.027 1.33.11.083.055.083.166.14.305L73 5.93h.388c0-.36-.056-.914-.056-1.386 0-.415.056-.914.056-1.413H73l-.028.637c-.056.167-.056.277-.138.277-.14.139-.555.222-1.332.222-.608 0-1.025 0-1.44-.083V.858c.332-.11.665-.11 1.053-.11.803 0 1.8 0 2.467.249.083.082.083.194.083.36v.775h.47c0-.61.029-1.302.167-1.856-.47-.028-.998-.028-1.607-.028-.693 0-1.83.028-2.91.028-.776 0-1.469-.028-2.217-.028V.58l.61.083c.332 0 .472 0 .554.194.111.084.111.416.111.943zm-3.604.25c0 .332 0 .415-.083.553-.028.194-.748.471-1.747.471-2.55 0-4.073-1.857-4.073-4.324 0-2.217 1.302-3.824 3.658-3.824.83 0 1.385.056 1.801.221.527.25.998.444.998 1.054v.582h.416c0-.582.082-1.275.221-1.857C65.877.36 64.906 0 63.355 0c-3.05 0-5.35 1.801-5.35 4.545 0 3.16 2.3 4.656 5.1 4.656.832 0 2.19-.332 3.27-.665V6.429c0-.415 0-.415.166-.499l.333-.11-.028-.25H63.77v.333l1.054.028c.332.083.415.221.415.499zM52.603 9.201c2.77 0 4.821-2.217 4.821-4.905C57.424 1.525 55.568 0 52.852 0c-2.938 0-4.74 1.995-4.74 4.544 0 2.856 1.94 4.657 4.49 4.657M52.63.527c2.356 0 3.492 1.635 3.492 4.158 0 2.3-1.025 3.99-3.16 3.99-2.466 0-3.464-2.355-3.464-4.544 0-2.079.97-3.604 3.132-3.604m-6.29 1.276c0-.527.054-.86.137-.943.028-.194.222-.194.5-.194l.553-.083V.251c-.332 0-.748.028-1.19.028-.361 0-.777-.028-1.193-.028l-3.27 6.984L38.523.25c-.388 0-.776.028-1.191.028-.36 0-.776-.028-1.192-.028v.332l.582.083c.277 0 .416 0 .527.194.083.084.083.416.083.943V7.4c0 .47 0 .803-.083.97-.11.083-.25.083-.527.165l-.582.028v.443c.527 0 .998-.083 1.496-.083.471 0 .887.083 1.496.083v-.443l-.61-.028c-.248-.083-.415-.083-.498-.166-.056-.166-.083-.498-.083-.97V1.748h.027L41.46 9.09h.25c.249-.554.36-1.108.664-1.635l2.218-4.74c.166-.332.388-.665.553-.97V7.4c0 .47 0 .804-.083.97-.083.083-.222.083-.554.166l-.416.028v.443a15 15 0 0 1 1.663-.084c.582 0 1.192.028 1.802.084v-.443l-.582-.028c-.277 0-.471-.084-.5-.167-.083-.166-.138-.498-.138-.969V1.803z" clip-rule="evenodd"/><path fill="#fff" fill-rule="evenodd" d="m95.974 20.177 1.164-.083v-3.27l3.436 3.437v-5.987l-1.136.083v3.27l-3.465-3.436zm-7.427-.775v-2.688H86.08l-.333 1.053h1.663v1.025c-.36.305-.802.443-1.302.443-.998 0-1.802-.859-1.802-2.023 0-1.136.804-1.967 1.802-1.967.637 0 1.137.25 1.69.72l.61-.859c-.61-.61-1.358-.859-2.3-.859-.776 0-1.552.277-2.079.86a2.93 2.93 0 0 0-.886 2.105c0 .888.331 1.553.886 2.19a3 3 0 0 0 2.079.86c.886-.001 1.69-.278 2.439-.86m-13.83.775 1.136-.083v-5.82l-1.136.083zm-11.141-.86c.47.667 1.08.944 1.884.944 1.137 0 1.885-.776 1.885-1.802 0-.831-.387-1.384-1.22-1.718-.747-.277-1.247-.277-1.247-.776 0-.388.25-.637.694-.637.36 0 .637.166.942.498l.748-.802c-.415-.527-.97-.776-1.718-.776-1.053 0-1.856.747-1.856 1.745 0 .832.47 1.304 1.44 1.636.638.221 1.054.332 1.054.83 0 .417-.306.695-.776.695-.36 0-.666-.223-.998-.694zm-10.366.777h3.187l.416-1.08h-2.411v-1.386h1.663v-1.08h-1.663V15.41h2.134l-.25-1.054H53.21zm-10.586-1.08v-3.575h.194c1.275 0 2.023.72 2.023 1.773 0 1.081-.748 1.802-2.023 1.802zm-1.164-4.657v5.737h1.247c2.05 0 3.27-1.136 3.27-2.882 0-1.69-1.163-2.854-3.27-2.854z" clip-rule="evenodd"/><path fill="#0c1018" fill-rule="evenodd" d="M11.307.114.027.086l.028 7.04C2.632 4.685 7.29 1.775 11.307.113m4.213-.03c.305.415.748.997 1.054 1.69.027.388 0 .97-.167 1.442-2.05 4.018-4.517 7.842-7.538 11.362 4.38-3.464 5.987-4.351 9.395-6.18l1.774.776c-1.026.36-4.545 4.24-5.266 5.543.721-.693 8.065-5.044 8.509-4.906.388.056 4.046 1.635 3.131 1.47-.886-.14-5.487 3.603-6.706 4.794-1.303 1.22-3.603 4.961-2.301 5.432 3.437 1.247 15.742-7.15 15.604-8.231L33.036.027z" clip-rule="evenodd"/><path fill="#33348e" fill-rule="evenodd" d="M16.657 22.923 0 22.95V10.923c3.77-3.77 8.12-7.095 13.497-9.7 1.22-.444 1.608-.195 1.08.693a200 200 0 0 1-9.505 13.607l.886 3.27c-.443-.194 8.453-7.288 8.868-7.094-.11-.111-4.074 4.961-3.88 5.404.194.416.194 1.496.5 1.441-.084-.416 10.115-6.79 10.836-6.956-.942.166-8.48 6.596-7.233 9.117.97 1.69.61 1.081 1.608 2.218" clip-rule="evenodd"/><path fill="#0c1018" fill-rule="evenodd" d="M22.422 22.866c4.351-1.857 10.531-5.128 10.531-5.1l.056 5.1z" clip-rule="evenodd"/></svg>
